src/assets/icons/fa/check-circle.svg

<?xml version="1.0" encoding="utf-8"?>
<svg width="1792" height="1792" viewBox="0 0 1792 1792" xmlns="http://www.w3.org/2000/svg"><path d="M1412 734q0-28-18-46l-91-90q-19-19-45-19t-45 19l-408 407-226-226q-19-19-45-19t-45 19l-91 90q-18 18-18 46 0 27 18 45l362 362q19 19 45 19 27 0 46-19l543-543q18-18 18-45zm252 162q0 209-103 385.5t-279.5 279.5-385.5 103-385.5-103-279.5-279.5-103-385.5 103-385.5 279.5-279.5 385.5-103 385.5 103 279.5 279.5 103 385.5z"/></svg>

<svg xmlns="http://www.w3.org/2000/svg" viewBox="0 0 1792 1792"><path d="M1412 734q0-28-18-46l-91-90q-19-19-45-19t-45 19l-408 407-226-226q-19-19-45-19t-45 19l-91 90q-18 18-18 46 0 27 18 45l362 362q19 19 45 19 27 0 46-19l543-543q18-18 18-45zm252 162q0 209-103 385.5T1281.5 1561 896 1664t-385.5-103T231 1281.5 128 896t103-385.5T510.5 231 896 128t385.5 103T1561 510.5 1664 896z"/></svg>
